build/images/icons/edit.svg

<svg width="18" height="18" viewBox="0 0 18 18" fill="none" xmlns="http://www.w3.org/2000/svg">
<path d="M2.25 12.9374V15.7499H5.0625L13.3575 7.45492L10.545 4.64242L2.25 12.9374ZM15.5325 5.27992C15.825 4.98742 15.825 4.51492 15.5325 4.22242L13.7775 2.46742C13.485 2.17492 13.0125 2.17492 12.72 2.46742L11.3475 3.83992L14.16 6.65242L15.5325 5.27992Z"/>
</svg>

<svg width="18" height="18" fill="none" xmlns="http://www.w3.org/2000/svg"><path d="M2.25 12.937v2.813h2.813l8.294-8.295-2.812-2.813-8.295 8.295zM15.533 5.28a.747.747 0 000-1.058l-1.755-1.755a.747.747 0 00-1.058 0L11.347 3.84l2.813 2.812 1.373-1.372z"/></svg>
